Sources/FrostedUI/Resources/Icons.xcassets/gifFilled20.imageset/gif-filled-20.svg

<svg width="20" height="20" viewBox="0 0 20 20" fill="none" xmlns="http://www.w3.org/2000/svg" data-fui-icon="true">
  <path
    d="M9.99988 0C11.5819 0 12.8128 -0.000596686 13.7996 0.078124C14.7947 0.15753 15.6067 0.321456 16.3396 0.684562C17.6302 1.32412 18.6756 2.36955 19.3152 3.66011C19.6783 4.39303 19.8422 5.20508 19.9216 6.20012C20.0004 7.18688 19.9998 8.4179 19.9998 9.99988C19.9998 11.5818 20.0003 12.8129 19.9216 13.7996C19.8422 14.7947 19.6783 15.6067 19.3152 16.3396C18.6756 17.6303 17.6303 18.6756 16.3396 19.3152C15.6067 19.6784 14.7948 19.8422 13.7996 19.9216C12.8128 20.0004 11.5819 19.9998 9.99988 19.9998C8.41784 19.9998 7.18691 20.0004 6.20012 19.9216C5.20503 19.8422 4.39306 19.6784 3.66011 19.3152C2.36953 18.6756 1.32413 17.6303 0.684562 16.3396C0.321473 15.6067 0.157528 14.7947 0.078124 13.7996C-0.000587736 12.8129 0 11.5818 0 9.99988C-6.23739e-08 8.4179 -0.000603917 7.18688 0.078124 6.20012C0.157544 5.20508 0.321417 4.39304 0.684562 3.66011C1.32417 2.36951 2.36949 1.32414 3.66011 0.684562C4.39307 0.321401 5.20502 0.15754 6.20012 0.078124C7.18691 -0.000605942 8.41784 -3.12622e-08 9.99988 0ZM5.9384 6.49992C4.31579 6.50021 3.00032 7.81576 2.99996 9.43836V10.5546C3.00015 12.1836 4.32107 13.5047 5.95012 13.5047H6.3466C7.58879 13.5044 8.59628 12.4969 8.59657 11.2547V10.7137C8.5962 10.0239 8.03645 9.46406 7.34659 9.46375H6.48039C6.06667 9.46405 5.73077 9.80004 5.7304 10.2137C5.73056 10.6276 6.06654 10.9634 6.48039 10.9637H7.09659V11.2547C7.0963 11.6685 6.76037 12.0044 6.3466 12.0047H5.95012C5.14949 12.0047 4.50013 11.3552 4.49995 10.5546V9.43836C4.5003 8.64417 5.1442 8.00019 5.9384 7.9999C6.41882 7.99997 6.71761 8.18792 6.90421 8.36611C7.00165 8.45924 7.07126 8.55257 7.11417 8.62001C7.13489 8.65261 7.14889 8.6783 7.15616 8.69228L7.19132 8.76259C7.37625 9.09416 7.78614 9.23899 8.14248 9.08583C8.52268 8.92211 8.69838 8.48078 8.53505 8.10049L7.9169 8.36611C8.51046 8.11058 8.53334 8.09932 8.53408 8.09853V8.09756L8.52822 8.08584C8.52557 8.07996 8.52217 8.07226 8.51845 8.06435C8.51073 8.04797 8.50072 8.02606 8.48818 8.00186C8.46292 7.95319 8.42667 7.8891 8.37978 7.81533C8.28603 7.66794 8.14252 7.47434 7.94033 7.28116C7.52671 6.88618 6.87112 6.49999 5.9384 6.49992ZM10.4335 6.49992C10.0194 6.49999 9.68361 6.83586 9.68348 7.24991V12.7547C9.68377 13.1686 10.0195 13.5047 10.4335 13.5047C10.8474 13.5046 11.1832 13.1686 11.1835 12.7547V7.24991C11.1833 6.8359 10.8475 6.50005 10.4335 6.49992ZM13.7362 6.49992C13.046 6.49999 12.4863 7.05971 12.4862 7.74991V12.7547C12.4865 13.1686 12.8222 13.5047 13.2362 13.5047C13.6501 13.5047 13.9859 13.1686 13.9862 12.7547V10.7518H15.7889C16.2029 10.7518 16.5387 10.4159 16.5389 10.0018C16.5385 9.58795 16.2028 9.25191 15.7889 9.25184H13.9862V7.9999H16.2518C16.6658 7.99984 17.0016 7.66394 17.0017 7.24991C17.0016 6.83586 16.6658 6.49999 16.2518 6.49992H13.7362Z"
    fill="currentColor"
  />
</svg>

<svg xmlns="http://www.w3.org/2000/svg" width="20" height="20" fill="none" data-fui-icon="true" viewBox="0 0 20 20"><path fill="currentColor" d="M10 0c1.582 0 2.813 0 3.8.078.995.08 1.807.243 2.54.607a6.6 6.6 0 0 1 2.975 2.975c.363.733.527 1.545.607 2.54C20 7.187 20 8.418 20 10s0 2.813-.078 3.8c-.08.995-.244 1.807-.607 2.54a6.6 6.6 0 0 1-2.975 2.975c-.733.363-1.545.527-2.54.607C12.813 20 11.582 20 10 20s-2.813 0-3.8-.078c-.995-.08-1.807-.244-2.54-.607A6.6 6.6 0 0 1 .685 16.34C.32 15.607.158 14.795.078 13.8 0 12.813 0 11.582 0 10s0-2.813.078-3.8c.08-.995.243-1.807.607-2.54A6.6 6.6 0 0 1 3.66.685C4.393.32 5.205.158 6.2.078 7.187 0 8.418 0 10 0M5.938 6.5A2.94 2.94 0 0 0 3 9.438v1.117a2.95 2.95 0 0 0 2.95 2.95h.397a2.25 2.25 0 0 0 2.25-2.25v-.541c0-.69-.56-1.25-1.25-1.25H6.48a.751.751 0 0 0 0 1.5h.617v.29a.75.75 0 0 1-.75.75H5.95c-.8 0-1.45-.649-1.45-1.45V9.439A1.44 1.44 0 0 1 5.938 8c.48 0 .78.188.966.366a1.4 1.4 0 0 1 .252.326l.035.07A.75.75 0 0 0 8.535 8.1l-.618.266c.593-.255.616-.267.617-.267v-.001l-.006-.012-.01-.022q-.01-.025-.03-.062a2.891 2.891 0 0 0-.548-.72C7.527 6.885 6.871 6.5 5.938 6.5m4.496 0a.75.75 0 0 0-.75.75v5.505a.75.75 0 0 0 1.5 0V7.25a.75.75 0 0 0-.75-.75m3.302 0c-.69 0-1.25.56-1.25 1.25v5.005a.75.75 0 0 0 1.5 0v-2.003h1.803a.75.75 0 0 0 0-1.5h-1.803V8h2.266a.75.75 0 0 0 0-1.5z"/></svg>
